usr/share/icons/biglinux-icons-material/scalable/apps/preferences-color.svg

<?xml version="1.0" encoding="UTF-8" standalone="no"?>
<svg
   width="24"
   height="24"
   viewBox="0 0 6.349875 6.349875"
   version="1.1"
   id="svg68298"
   sodipodi:docname="preferences-desktop-color.svg"
   inkscape:version="1.2.2 (b0a8486541, 2022-12-01)"
   xml:space="preserve"
   xmlns:inkscape="http://www.inkscape.org/namespaces/inkscape"
   xmlns:sodipodi="http://sodipodi.sourceforge.net/DTD/sodipodi-0.dtd"
   xmlns="http://www.w3.org/2000/svg"
   xmlns:svg="http://www.w3.org/2000/svg"><defs
     id="defs68302"><radialGradient
       id="paint0_radial_3_321"
       cx="0"
       cy="0"
       r="1"
       gradientUnits="userSpaceOnUse"
       gradientTransform="matrix(0,5.8207186,-5.8207186,0,3.1749362,0.26458162)"><stop
         stop-color="#555555"
         id="stop180" /><stop
         offset="1"
         stop-color="#222222"
         id="stop182" /></radialGradient></defs><sodipodi:namedview
     id="namedview68300"
     pagecolor="#ffffff"
     bordercolor="#000000"
     borderopacity="0.25"
     inkscape:showpageshadow="2"
     inkscape:pageopacity="0.0"
     inkscape:pagecheckerboard="0"
     inkscape:deskcolor="#d1d1d1"
     showgrid="false"
     inkscape:zoom="19.312854"
     inkscape:cx="-0.77668479"
     inkscape:cy="8.3623063"
     inkscape:window-width="2560"
     inkscape:window-height="1000"
     inkscape:window-x="1680"
     inkscape:window-y="0"
     inkscape:window-maximized="1"
     inkscape:current-layer="svg68298" /><path
     fill-rule="evenodd"
     clip-rule="evenodd"
     d="m 2.5389012,0.29463502 c 0.03171,3.361e-4 0.06202,-0.0037 0.09092,-0.012118 0.379884,-0.024885 0.759713,-0.023875 1.139541,0.00303 0.344401,0.026834 0.677796,0.1015557 1.000158,0.2241664 0.53593,0.2206423 0.902661,0.60334398 1.100143,1.14809978 0.112948,0.3279789 0.179622,0.665242 0.200047,1.0117837 0.02823,0.4351517 0.01812,0.8693508 -0.03032,1.3025975 -0.03625,0.3045029 -0.115065,0.597338 -0.2364,0.8784787 -0.22505,0.4874852 -0.589745,0.8237372 -1.094084,1.0087572 -0.408693,0.138083 -0.828949,0.210789 -1.260794,0.218091 -0.485739,0.02527 -0.966601,-0.01108 -1.44262,-0.109032 -0.876171,-0.19518 -1.41665202,-0.7293626 -1.62143802,-1.6024968 -0.08691,-0.3930573 -0.126304,-0.7909034 -0.1182,-1.1935384 -0.0097,-0.4281403 0.03576,-0.8502244 0.136385,-1.2662418 0.214678,-0.8163902 0.73293102,-1.32228198 1.55476102,-1.51767028 0.191499,-0.046817 0.385467,-0.078119 0.581901,-0.093907 z"
     fill="url(#paint0_radial_3_321)"
     id="path174"
     style="fill:url(#paint0_radial_3_321);stroke-width:0.264578" /><g
     id="g68519"
     transform="matrix(0.29628614,0,0,0.29628614,-2.4792074,5.9245368)"><g
       stroke-width="0.963"
       id="g68286"
       transform="translate(10.61703,-17.746714)"><path
         d="m 13.323,3.603 c -0.048,0.049 2.02,4.86 2.02,4.86 l -2.02,4.858 c 0,0 -4.86,-2.568 -4.86,-4.859 0,-2.29 4.86,-4.859 4.86,-4.859 z"
         fill="#46a926"
         style="isolation:isolate"
         transform="matrix(1.0382,0,0,1.0384,-0.322,-0.322)"
         id="path68262" /><path
         d="M 3.604,13.321 C 3.653,13.272 1.584,8.462 1.584,8.462 l 2.02,-4.859 c 0,0 4.86,2.569 4.86,4.86 0,2.29 -4.86,4.858 -4.86,4.858 z"
         fill="#f22c42"
         style="isolation:isolate"
         transform="matrix(1.0382,0,0,1.0384,-0.322,-0.322)"
         id="path68264" /><path
         d="M 13.323,3.603 C 13.275,3.652 8.463,1.584 8.463,1.584 l -4.86,2.019 4.86,4.86 z"
         fill="#ffda64"
         style="isolation:isolate"
         transform="matrix(1.0382,0,0,1.0384,-0.322,-0.322)"
         id="path68266" /><path
         d="m 3.604,13.321 4.86,2.013 c 0,0 4.81,-2.062 4.86,-2.013 L 8.464,8.462 Z"
         fill="#2f5fdd"
         style="isolation:isolate"
         transform="matrix(1.0382,0,0,1.0384,-0.322,-0.322)"
         id="path68268" /><path
         d="m 8.464,1.587 a 6.846,6.846 0 0 0 2.019,4.862 L 13.328,3.605 A 6.88,6.88 0 0 0 8.467,1.587 Z"
         fill="#a6d74f"
         style="isolation:isolate"
         transform="matrix(1.0382,0,0,1.0384,-0.322,-0.322)"
         id="path68270" /><path
         d="M 13.328,3.605 10.483,6.449 A 6.84,6.84 0 0 0 15.346,8.461 6.88,6.88 0 0 0 13.328,3.605 Z"
         fill="#76c22b"
         style="isolation:isolate"
         transform="matrix(1.0382,0,0,1.0384,-0.322,-0.322)"
         id="path68272" /><path
         d="m 10.476,10.481 a 6.85,6.85 0 0 0 -2.019,4.862 h 0.069 a 6.88,6.88 0 0 0 4.8,-2.013 z"
         fill="#1463a5"
         style="isolation:isolate"
         transform="matrix(1.0382,0,0,1.0384,-0.322,-0.322)"
         id="path68274" /><path
         d="m 15.346,8.469 a 6.84,6.84 0 0 0 -4.87,2.012 l 2.85,2.85 a 6.88,6.88 0 0 0 2.02,-4.862 z"
         fill="#2b898f"
         style="isolation:isolate"
         transform="matrix(1.0382,0,0,1.0384,-0.322,-0.322)"
         id="path68276" /><path
         d="m 1.587,8.463 a 6.88,6.88 0 0 0 0,0.003 6.88,6.88 0 0 0 2.014,4.857 l 2.85,-2.848 A 6.839,6.839 0 0 0 1.587,8.464 Z"
         fill="#9b33ae"
         style="isolation:isolate"
         transform="matrix(1.0382,0,0,1.0384,-0.322,-0.322)"
         id="path68278" /><path
         d="M 6.45,10.475 3.6,13.323 a 6.88,6.88 0 0 0 4.826,2.02 H 8.469 A 6.85,6.85 0 0 0 6.45,10.475 Z"
         fill="#7839b7"
         style="isolation:isolate"
         transform="matrix(1.0382,0,0,1.0384,-0.322,-0.322)"
         id="path68280" /><path
         d="M 8.467,1.587 A 6.88,6.88 0 0 0 3.609,3.602 l 2.848,2.847 a 6.85,6.85 0 0 0 2.019,-4.861 6.88,6.88 0 0 0 -0.01,0 z"
         fill="#fdc92b"
         style="isolation:isolate"
         transform="matrix(1.0382,0,0,1.0384,-0.322,-0.322)"
         id="path68282" /><path
         d="M 3.609,3.602 A 6.88,6.88 0 0 0 1.588,8.461 6.84,6.84 0 0 0 6.457,6.449 Z"
         fill="#f34f17"
         style="isolation:isolate"
         transform="matrix(1.0382,0,0,1.0384,-0.322,-0.322)"
         id="path68284" /></g><circle
       cx="19.083029"
       cy="-9.280714"
       r="5.2919998"
       fill="#ffffff"
       opacity="0.35"
       style="paint-order:fill markers stroke"
       id="circle68288" /><g
       fill="#ffffff"
       color="#000000"
       id="g68296"
       transform="translate(10.61703,-17.746714)"><path
         d="m 9.59,9.589 a 1.588,1.588 0 0 1 -2.246,0 1.588,1.588 0 0 1 0,-2.245 1.588,1.588 0 0 1 2.245,0 1.588,1.588 0 0 1 0,2.245 z"
         opacity="0.5"
         overflow="visible"
         style="isolation:auto;mix-blend-mode:normal;paint-order:fill markers stroke"
         id="path68290" /><path
         d="M 8.467,4.031 A 0.126,0.126 0 0 0 8.379,4.069 L 6.277,6.171 a 3.175,3.175 0 0 0 -0.056,0.05 3.175,3.175 0 0 0 0,4.49 3.175,3.175 0 0 0 4.49,0 3.175,3.175 0 0 0 10e-4,-4.49 3.175,3.175 0 0 0 -0.076,-0.07 C 10.632,6.146 10.631,6.141 10.626,6.136 L 8.559,4.069 A 0.126,0.126 0 0 0 8.467,4.031 Z M 8.49,6.879 a 1.588,1.588 0 0 1 1.1,0.465 1.588,1.588 0 0 1 0,2.245 1.588,1.588 0 0 1 -2.246,0 1.588,1.588 0 0 1 0,-2.245 1.588,1.588 0 0 1 1.146,-0.465 z"
         overflow="visible"
         style="isolation:auto;mix-blend-mode:normal;paint-order:fill markers stroke"
         id="path68292" /><path
         d="M 9.022,7.718 8.461,8.279 7.9,7.718 7.712,7.905 8.274,8.466 7.724,9.039 7.9,9.215 8.46,8.653 9.022,9.215 9.221,9.039 8.648,8.466 9.209,7.906 Z"
         overflow="visible"
         style="isolation:auto;mix-blend-mode:normal;paint-order:fill markers stroke"
         id="path68294" /></g></g></svg>

<svg width="64" height="64" viewBox="0 0 16.933 16.933" xmlns="http://www.w3.org/2000/svg"><g stroke-width=".963"><path d="M13.323 3.603c-.048.049 2.02 4.86 2.02 4.86l-2.02 4.858s-4.86-2.568-4.86-4.859c0-2.29 4.86-4.859 4.86-4.859z" fill="#46a926" style="isolation:isolate" transform="matrix(1.0382 0 0 1.0384 -.322 -.322)"/><path d="M3.604 13.321c.049-.049-2.02-4.859-2.02-4.859l2.02-4.859s4.86 2.569 4.86 4.86c0 2.29-4.86 4.858-4.86 4.858z" fill="#f22c42" style="isolation:isolate" transform="matrix(1.0382 0 0 1.0384 -.322 -.322)"/><path d="M13.323 3.603c-.048.049-4.86-2.019-4.86-2.019l-4.86 2.019 4.86 4.86z" fill="#ffda64" style="isolation:isolate" transform="matrix(1.0382 0 0 1.0384 -.322 -.322)"/><path d="m3.604 13.321 4.86 2.013s4.81-2.062 4.86-2.013l-4.86-4.859z" fill="#2f5fdd" style="isolation:isolate" transform="matrix(1.0382 0 0 1.0384 -.322 -.322)"/><path d="M8.464 1.587a6.846 6.846 0 0 0 2.019 4.862l2.845-2.844a6.88 6.88 0 0 0-4.861-2.018z" fill="#a6d74f" style="isolation:isolate" transform="matrix(1.0382 0 0 1.0384 -.322 -.322)"/><path d="m13.328 3.605-2.845 2.844a6.84 6.84 0 0 0 4.863 2.012 6.88 6.88 0 0 0-2.018-4.856z" fill="#76c22b" style="isolation:isolate" transform="matrix(1.0382 0 0 1.0384 -.322 -.322)"/><path d="M10.476 10.481a6.85 6.85 0 0 0-2.019 4.862h.069a6.88 6.88 0 0 0 4.8-2.013z" fill="#1463a5" style="isolation:isolate" transform="matrix(1.0382 0 0 1.0384 -.322 -.322)"/><path d="M15.346 8.469a6.84 6.84 0 0 0-4.87 2.012l2.85 2.85a6.88 6.88 0 0 0 2.02-4.862z" fill="#2b898f" style="isolation:isolate" transform="matrix(1.0382 0 0 1.0384 -.322 -.322)"/><path d="M1.587 8.463a6.88 6.88 0 0 0 0 .003 6.88 6.88 0 0 0 2.014 4.857l2.85-2.848a6.839 6.839 0 0 0-4.864-2.011z" fill="#9b33ae" style="isolation:isolate" transform="matrix(1.0382 0 0 1.0384 -.322 -.322)"/><path d="M6.45 10.475 3.6 13.323a6.88 6.88 0 0 0 4.826 2.02h.043a6.85 6.85 0 0 0-2.019-4.868z" fill="#7839b7" style="isolation:isolate" transform="matrix(1.0382 0 0 1.0384 -.322 -.322)"/><path d="M8.467 1.587a6.88 6.88 0 0 0-4.858 2.015l2.848 2.847a6.85 6.85 0 0 0 2.019-4.861 6.88 6.88 0 0 0-.01 0z" fill="#fdc92b" style="isolation:isolate" transform="matrix(1.0382 0 0 1.0384 -.322 -.322)"/><path d="M3.609 3.602a6.88 6.88 0 0 0-2.021 4.859 6.84 6.84 0 0 0 4.869-2.012z" fill="#f34f17" style="isolation:isolate" transform="matrix(1.0382 0 0 1.0384 -.322 -.322)"/></g><circle cx="8.466" cy="8.466" r="5.292" fill="#fff" opacity=".35" style="paint-order:fill markers stroke"/><g fill="#fff" color="#000"><path d="M9.59 9.589a1.588 1.588 0 0 1-2.246 0 1.588 1.588 0 0 1 0-2.245 1.588 1.588 0 0 1 2.245 0 1.588 1.588 0 0 1 0 2.245z" opacity=".5" overflow="visible" style="isolation:auto;mix-blend-mode:normal;paint-order:fill markers stroke"/><path d="M8.467 4.031a.126.126 0 0 0-.088.038L6.277 6.171a3.175 3.175 0 0 0-.056.05 3.175 3.175 0 0 0 0 4.49 3.175 3.175 0 0 0 4.49 0 3.175 3.175 0 0 0 .001-4.49 3.175 3.175 0 0 0-.076-.07c-.004-.005-.005-.01-.01-.015L8.559 4.069a.126.126 0 0 0-.092-.038zm.023 2.848a1.588 1.588 0 0 1 1.1.465 1.588 1.588 0 0 1 0 2.245 1.588 1.588 0 0 1-2.246 0 1.588 1.588 0 0 1 0-2.245 1.588 1.588 0 0 1 1.146-.465z" overflow="visible" style="isolation:auto;mix-blend-mode:normal;paint-order:fill markers stroke"/><path d="m9.022 7.718-.561.561-.561-.561-.188.187.562.561-.55.573.176.176.56-.562.562.562.199-.176-.573-.573.561-.56z" overflow="visible" style="isolation:auto;mix-blend-mode:normal;paint-order:fill markers stroke"/></g></svg>
